!!!COM: Haydn, Franz Joseph
!!!OPR: London Symphonies
!!!OTL: Symphonie Nr. 102
!!!XEN: Symphony No. 102 in B-flat major
!!!OMV: Movement 3.
!!!YEC: Copyright 1996, Center for Computer Assisted Research in the Humanities
!!!YEM: Rights to all derivative electronic formats reserved.
!!!YEM: Refer to licensing agreement for further details.
!!
!! "Timpani in B-F" in Dover. Transpose interval X=-5 for written Bs, & X=0 for Fs.
!!
!! Menuetto and Trio
!! Menuetto
!! Allegro
**kern	**kern	**kern	**kern	**kern	**kern	**kern	**kern	**kern	**kern	**kern	**kern	**kern	**kern	**kern
!Violoncello e Basso	!Viola	!Violino II	!Violino I	!Timpani in Bb, F	!Tromba 2 in Bb	!Tromba 1 in Bb	!Corno 2 in Bb (basso)	!Corno 1 in Bb (basso)	!Fagotto 2	!Fagotto 1	!Oboe 2	!Oboe 1	!Flauto 2	!Flauto 1
*Icello	*Iviola	*Ivioln	*Ivioln	*Itimpa	*Itromp	*Itromp	*Icor	*Icor	*Ifagot	*Ifagot	*Ioboe	*Ioboe	*Iflt	*Iflt
*Icbass	*	*	*	*	*	*	*	*	*	*	*	*	*	*	*	*
*ICstr	*ICstr	*ICstr	*ICstr	*ICidio	*ICbras	*ICbras	*ICbras	*ICbras	*ICww	*ICww	*ICww	*ICww	*ICww	*ICww
*clefF4	*clefC3	*clefG2	*clefG2	*clefF4	*clefG2	*clefG2	*clefG2	*clefG2	*clefF4	*clefF4	*clefG2	*clefG2	*clefG2	*clefG2
*k[b-e-]	*k[b-e-]	*k[b-e-]	*k[b-e-]	*k[b-e-]	*k[]	*k[]	*k[]	*k[]	*k[b-e-]	*k[b-e-]	*k[b-e-]	*k[b-e-]	*k[b-e-]	*k[b-e-]
*M3/4	*M3/4	*M3/4	*M3/4	*M3/4	*M3/4	*M3/4	*M3/4	*M3/4	*M3/4	*M3/4	*M3/4	*M3/4	*M3/4	*M3/4
*>[A,A,B,B,C,C,D,D,A,B]	*>[A,A,B,B,C,C,D,D,A,B]	*>[A,A,B,B,C,C,D,D,A,B]	*>[A,A,B,B,C,C,D,D,A,B]	*>[A,A,B,B,C,C,D,D,A,B]	*>[A,A,B,B,C,C,D,D,A,B]	*>[A,A,B,B,C,C,D,D,A,B]	*>[A,A,B,B,C,C,D,D,A,B]	*>[A,A,B,B,C,C,D,D,A,B]	*>[A,A,B,B,C,C,D,D,A,B]	*>[A,A,B,B,C,C,D,D,A,B]	*>[A,A,B,B,C,C,D,D,A,B]	*>[A,A,B,B,C,C,D,D,A,B]	*>[A,A,B,B,C,C,D,D,A,B]	*>[A,A,B,B,C,C,D,D,A,B]
*>A	*>A	*>A	*>A	*>A	*>A	*>A	*>A	*>A	*>A	*>A	*>A	*>A	*>A	*>A
4r	4r	4r	4f/	4r	4r	4r	4r	4r	4r	4r	4r	4r	4f/	4f/
=1	=1	=1	=1	=1	=1	=1	=1	=1	=1	=1	=1	=1	=1	=1
4BB-/	4B-\ 4d/	4d/ 4B-/	4f/)	4BB-/	4d/	4b-\	4C################/	4a###\	4BB-/	4BB-/	4d/	4f/	4f/)	4f/)
4r	4r	4r	4b-\	4r	4r	4r	4r	4r	4r	4r	4r	4r	4b-\	4b-\
4r	4r	4r	4b-\	4r	4r	4r	4r	4r	4r	4r	4r	4r	4b-\	4b-\
=2	=2	=2	=2	=2	=2	=2	=2	=2	=2	=2	=2	=2	=2	=2
4BB-/	4B-\ 4d/	4f/ 4d/	4b-\)	4BB-/	4d/	4b-\	4C################/	4a###\	4BB-/	4BB-/	4f/	4b-\	4b-\)	4b-\)
4r	4r	4r	4dd\	4r	4r	4r	4r	4r	4r	4r	4r	4r	4dd\	4dd\
4r	4r	4r	4dd\	4r	4r	4r	4r	4r	4r	4r	4b-\	4dd\	4dd\	4dd\
=3	=3	=3	=3	=3	=3	=3	=3	=3	=3	=3	=3	=3	=3	=3
4BB-/	2B-\ 2d/	4b-\)	4dd\)	4BB-/	4d/	4b-\	4A###/	4a###\	2B-\	2B-\	4b-\	4dd\)	4dd\)	4dd\)
4BB-/	.	4dd\	4ff\	8BB-/L	4B-/	4b-\	4A###/	4a###\	.	.	4dd\	4ff\	4ff\	4ff\
.	.	.	.	8BB-/	.	.	.	.	.	.	.	.	.	.
4BB-/	8e-\L	8gg\L	8bb-\L	8BB-/	4B-/	4b-\	4A###/	4a###\	8E-\L	8E-\L	8gg\L	8bb-\L	8bb-\L	8bb-\L
.	8g\J	8ee-\J	8gg\J	8BB-/J	.	.	.	.	8G\J	8G\J	8ee-\J	8gg\J	8gg\J	8gg\J
=4	=4	=4	=4	=4	=4	=4	=4	=4	=4	=4	=4	=4	=4	=4
2BB-/	2b-\	2dd\	2ff\	4BB-/	4B-/	4b-\	4A###/	4a###\	2B-\	2B-\	2dd\	2ff\	2ff\	2ff\
.	.	.	.	4r	4r	4r	4r	4r	.	.	.	.	.	.
*	*	*	*	*	*	*	*	*	*clefC4	*clefC4	*	*	*	*
4r	4e-\ 4g/	(8gg\L	(8gg\L	4r	4r	4r	4r	4r	4e-\	4g\	4ee-\	4gg\	(8gg\L	(8gg\L
.	.	8ee-\J)	8ee-\J)	.	.	.	.	.	.	.	.	.	8ee-\J)	8ee-\J)
=5	=5	=5	=5	=5	=5	=5	=5	=5	=5	=5	=5	=5	=5	=5
2.r	(4d\ (4f/	(8ff\L	(8ff\L	2.r	2.r	2.r	2.r	2.r	(4d\	(4f\	(4dd\	(4ff\	(8ff\L	(8ff\L
.	.	8dd\)	8dd\)	.	.	.	.	.	.	.	.	.	8dd\)	8dd\)
.	4c\ 4e-/	(8ee-\	(8ee-\	.	.	.	.	.	4c\	4e-\	4cc\	4ee-\	(8ee-\	(8ee-\
.	.	8cc\)	8cc\)	.	.	.	.	.	.	.	.	.	8cc\)	8cc\)
.	4B\) 4d/)	(8dd\	(8dd\	.	.	.	.	.	4B\)	4d\)	4b\)	4dd\)	(8dd\	(8dd\
.	.	8b\J)	8b\J)	.	.	.	.	.	.	.	.	.	8b\J)	8b\J)
=6	=6	=6	=6	=6	=6	=6	=6	=6	=6	=6	=6	=6	=6	=6
4r	4c'\ 4e-'/	4cc'\	4cc'\	2.r	2.r	2.r	2.r	2.r	4c'\	4e-'\	4cc'\	4ee-'\	4cc'\	4cc'\
4r	4c'\ 4e-'/	4cc'\	4cc'\	.	.	.	.	.	4c'\	4e-'\	4cc'\	4ee-'\	4cc'\	4cc'\
(8C/L	4e-\ 4g/	(8g/L	(8ee-\L	.	.	.	.	.	4e-\	4g\	4g/	4ee-\	(8ee-\L	(8ee-\L
8D/J)	.	8e-/J)	8cc\J)	.	.	.	.	.	.	.	.	.	8cc\J)	8cc\J)
=7	=7	=7	=7	=7	=7	=7	=7	=7	=7	=7	=7	=7	=7	=7
4E-'\	(4d\ (4f/	(8f/L	(8dd\L	2.r	2.r	2.r	2.r	2.r	(4d\	(4f\	(4f/	(4dd\	(8dd\L	(8dd\L
.	.	8d/)	8b-\)	.	.	.	.	.	.	.	.	.	8b-\)	8b-\)
4E-'\	4c\ 4e-/	(8e-/	(8cc\	.	.	.	.	.	4c\	4e-\	4e-/	4cc\	(8cc\	(8cc\
.	.	8c/)	8a\)	.	.	.	.	.	.	.	.	.	8a\)	8a\)
4E'\	4B-\) 4d/)	(8d/	(8b-\	.	.	.	.	.	4B-\)	4d\)	4d/)	4b-\)	(8b-\	(8b-\
.	.	8B-/J)	8g\J)	.	.	.	.	.	.	.	.	.	8g\J)	8g\J)
=8	=8	=8	=8	=8	=8	=8	=8	=8	=8	=8	=8	=8	=8	=8
4F'\	4F'\ 4f'/	4f'/	4f'/	2.r	2.r	2.r	2.r	2.r	4F'\	4F'\	4f'/	4f'/	4f'/	4f'/
4F'\	4F'\ 4f'/	4f'/	4f'/	.	.	.	.	.	4F'\	4F'\	4f'/	4f'/	4f'/	4f'/
4r	4r	4r	4fz/	.	.	.	.	.	4r	4r	4r	4r	4fz/	4fz/
=9	=9	=9	=9	=9	=9	=9	=9	=9	=9	=9	=9	=9	=9	=9
4BB-/	4B-\ 4d/	4d/ 4B-/	4f/)	4BB-/	4d/	4b-\	4C################/	4a###\	4BB-/	4BB-/	4d/	4f/	4f/)	4f/)
4r	4r	4r	4b-\	4r	4r	4r	4r	4r	4r	4r	4r	4r	4b-\	4b-\
4r	4r	4r	4b-\	4r	4r	4r	4r	4r	4r	4r	4r	4r	4b-\	4b-\
=10	=10	=10	=10	=10	=10	=10	=10	=10	=10	=10	=10	=10	=10	=10
4BB-/	4B-\ 4d/	4f/ 4d/	4b-\)	4BB-/	4d/	4b-\	4C################/	4a###\	4BB-/	4BB-/	4f/	4b-\	4b-\)	4b-\)
4r	4r	4r	4dd\	4r	4r	4r	4r	4r	4r	4r	4r	4r	4dd\	4dd\
4r	4r	4r	4dd\	4r	4r	4r	4r	4r	4r	4r	4b-\	4dd\	4dd\	4dd\
=11	=11	=11	=11	=11	=11	=11	=11	=11	=11	=11	=11	=11	=11	=11
4BB-/	2B-\ 2d/	4b-\)	4dd\)	16BB-/LL	4B-/	4b-\	4A###/	4a###\	2B-\	2B-\	4b-\	4dd\)	4dd\)	4dd\)
.	.	.	.	16BB-/	.	.	.	.	.	.	.	.	.	.
.	.	.	.	16BB-/	.	.	.	.	.	.	.	.	.	.
.	.	.	.	16BB-/	.	.	.	.	.	.	.	.	.	.
4BB-/	.	4dd\	4ff\	16BB-/	4B-/	4b-\	4A###/	4a###\	.	.	4dd\	4ff\	4ff\	4ff\
.	.	.	.	16BB-/	.	.	.	.	.	.	.	.	.	.
.	.	.	.	16BB-/	.	.	.	.	.	.	.	.	.	.
.	.	.	.	16BB-/	.	.	.	.	.	.	.	.	.	.
4BB-/	8e-\L	8gg\L	8bb-\L	16BB-/	4B-/	4b-\	4A###/	4a###\	8E-\L	8E-\L	8gg\L	8bb-\L	8bb-\L	8bb-\L
.	.	.	.	16BB-/	.	.	.	.	.	.	.	.	.	.
.	8g\J	8ee-\J	8gg\J	16BB-/	.	.	.	.	8G\J	8G\J	8ee-\J	8gg\J	8gg\J	8gg\J
.	.	.	.	16BB-/JJ	.	.	.	.	.	.	.	.	.	.
=12	=12	=12	=12	=12	=12	=12	=12	=12	=12	=12	=12	=12	=12	=12
2BB-/	2b-\	2dd\	2ff\	4BB-/	4B-/	4b-\	4A###/	4a###\	2B-\	2B-\	2dd\	2ff\	2ff\	2ff\
.	.	.	.	4r	4r	4r	4r	4r	.	.	.	.	.	.
4r	4r	4b-'\	(8ee\L	4r	4r	4r	4r	4r	4r	4r	4r	4cc'\	(8ee\L	(8ee\L
.	.	.	8gg\J)	.	.	.	.	.	.	.	.	.	8gg\J)	8gg\J)
=13	=13	=13	=13	=13	=13	=13	=13	=13	=13	=13	=13	=13	=13	=13
2.r	2.r	4a'/	(8ff\L	2.r	2.r	2.r	2.r	2.r	2.r	2.r	4r	4cc'\	(8ff\L	(8ff\L
.	.	.	8aa\)	.	.	.	.	.	.	.	.	.	8aa\)	8aa\)
.	.	4e'/	(8gg\	.	.	.	.	.	.	.	4r	4cc'\	(8gg\	(8gg\
.	.	.	8bb-\J)	.	.	.	.	.	.	.	.	.	8bb-\J)	8bb-\J)
.	.	4b-'\	(8ee\L	.	.	.	.	.	.	.	4cc'\	4r	(8ee\L	(8ee\L
.	.	.	8gg\J)	.	.	.	.	.	.	.	.	.	8gg\J)	8gg\J)
=14	=14	=14	=14	=14	=14	=14	=14	=14	=14	=14	=14	=14	=14	=14
4r	4r	4a'/	(8ff\L	2.r	2.r	2.r	2.r	2.r	4r	4r	4cc'\	4r	(8ff\L	(8ff\L
.	.	.	8aa\)	.	.	.	.	.	.	.	.	.	8aa\)	8aa\)
4r	4r	4e'/	(8gg\	.	.	.	.	.	4r	4r	4cc'\	4r	(8gg\	(8gg\
.	.	.	8bb-\J)	.	.	.	.	.	.	.	.	.	8bb-\J)	8bb-\J)
4C'/	4c/ 4C'/	4c'/	4c'/	.	.	.	.	.	4C'/	4C'/	4c'/	4c'/	4cc'\	4cc'\
=15	=15	=15	=15	=15	=15	=15	=15	=15	=15	=15	=15	=15	=15	=15
4C'/	4c/ 4C'/	4c'/	4c'/	2.r	2.r	2.r	2.r	2.r	4C'/	4C'/	4c'/	4c'/	4cc'\	4cc'\
4C'/	4c/ 4C'/	4c'/	4c'/	.	.	.	.	.	4C'/	4C'/	4c'/	4c'/	4cc'\	4cc'\
4r	4r	4a'/	(8ff\L	.	.	.	.	.	4r	4r	4r	4cc'\	(8ff\L	(8ff\L
.	.	.	8aa\J)	.	.	.	.	.	.	.	.	.	8aa\J)	8aa\J)
=16	=16	=16	=16	=16	=16	=16	=16	=16	=16	=16	=16	=16	=16	=16
2.r	2.r	4e'/	(8gg\L	2.r	2.r	2.r	2.r	2.r	2.r	2.r	4r	4cc'\	(8gg\L	(8gg\L
.	.	.	8bb-\)	.	.	.	.	.	.	.	.	.	8bb-\)	8bb-\)
.	.	4f'/	(8aa\	.	.	.	.	.	.	.	4r	4cc'\	(8aa\	(8aa\
.	.	.	8ccc\J)	.	.	.	.	.	.	.	.	.	8ccc\J)	8ccc\J)
.	.	4a'/	(8ff\L	.	.	.	.	.	.	.	4cc'\	4r	(8ff\L	(8ff\L
.	.	.	8aa\J)	.	.	.	.	.	.	.	.	.	8aa\J)	8aa\J)
=17	=17	=17	=17	=17	=17	=17	=17	=17	=17	=17	=17	=17	=17	=17
4r	4r	4e'/	(8gg\L	2.r	2.r	2.r	2.r	2.r	4r	4r	4cc'\	4r	(8gg\L	(8gg\L
.	.	.	8bb-\)	.	.	.	.	.	.	.	.	.	8bb-\)	8bb-\)
4r	4r	4f'/	(8aa\	.	.	.	.	.	4r	4r	4cc'\	4r	(8aa\	(8aa\
.	.	.	8ccc\J)	.	.	.	.	.	.	.	.	.	8ccc\J)	8ccc\J)
4D'\	4D'/	4d'/	4d'/	.	.	.	.	.	4D'\	4D'\	4d'/	4d'/	4d'/	4d'/
=18	=18	=18	=18	=18	=18	=18	=18	=18	=18	=18	=18	=18	=18	=18
4D'\	4D'/	4d'/	4d'/	4r	4r	4r	4r	4r	4D'\	4D'\	4d'/	4d'/	4d'/	4d'/
4D'\	4D'/	4d'/	4d'/	4r	4r	4r	4r	4r	4D'\	4D'\	4d'/	4d'/	4d'/	4d'/
4BB-/	4f\	4bb-\	4ddd\	4BB-/	4b-\	4dd\	4a###\	4c################\	4f\	4f\	4bb-\	4ddd\	4ddd\	4ddd\
=19	=19	=19	=19	=19	=19	=19	=19	=19	=19	=19	=19	=19	=19	=19
4BB-/	4f\	4bb-\	4ddd\	4BB-/	4b-\	4dd\	4a###\	4c################\	4f\	4f\	4bb-\	4ddd\	4ddd\	4ddd\
4BB-/	4f\	4bb-\	4ddd\	4BB-/	4b-\	4dd\	4a###\	4c################\	4f\	4f\	4bb-\	4ddd\	4ddd\	4ddd\
4C/	4G/	4ee\ 4b-\	4ee\ 4b-\	4BB-/	4cc\	4cc\	4b###\	4b###\	4G\	4G\	4ee\	4ee\	4ee\	4ee\
=20	=20	=20	=20	=20	=20	=20	=20	=20	=20	=20	=20	=20	=20	=20
4F\	4A/	4ff\ 4a\	4ff\ 4a\	4FF/	4f/	4cc\	4E###############/	4b###\	4A\	4A\	4ff\	4ff\	4ff\	4ff\
4r	4r	4r	4r	4r	4r	4r	4r	4r	4r	4r	4r	4r	4r	4r
=:||:@	=:||:@	=:||:@	=:||:@	=:||:@	=:||:@	=:||:@	=:||:@	=:||:@	=:||:@	=:||:@	=:||:@	=:||:@	=:||:@	=:||:@
*>B	*>B	*>B	*>B	*>B	*>B	*>B	*>B	*>B	*>B	*>B	*>B	*>B	*>B	*>B
4A-'\	4r	4r	4r	4r	4r	4r	4r	4r	4r	4r	4r	4r	4r	4r
=21	=21	=21	=21	=21	=21	=21	=21	=21	=21	=21	=21	=21	=21	=21
4A-'\	4r	2.r	2.r	2.r	2.r	2.r	2.r	2.r	2.r	2.r	2.r	2.r	2.r	2.r
4A-'\	4r	.	.	.	.	.	.	.	.	.	.	.	.	.
4r	4f'\	.	.	.	.	.	.	.	.	.	.	.	.	.
=22	=22	=22	=22	=22	=22	=22	=22	=22	=22	=22	=22	=22	=22	=22
2.r	4f'\	4r	2.r	2.r	2.r	2.r	2.r	2.r	2.r	2.r	2.r	2.r	2.r	2.r
.	4f'\	4r	.	.	.	.	.	.	.	.	.	.	.	.
.	4r	4b'\	.	.	.	.	.	.	.	.	.	.	.	.
=23	=23	=23	=23	=23	=23	=23	=23	=23	=23	=23	=23	=23	=23	=23
4r	4r	4b'\	4r	2.r	2.r	2.r	4r	4r	4r	4r	4r	4r	4r	4r
4r	4r	4b'\	4r	.	.	.	4r	4r	4r	4r	4r	4r	4r	4r
4G'\	(8f\L	4b/ 4d'/	(8aa-\L	.	.	.	4C################'/	4E###############'/	4GG'/	4GG'/	4ff'\	4aa-'\	4bb'\	4ddd'\
.	8a-\J)	.	8ff\J)	.	.	.	.	.	.	.	.	.	.	.
=24	=24	=24	=24	=24	=24	=24	=24	=24	=24	=24	=24	=24	=24	=24
4G'\	(8f\L	4b/ 4d'/	(8aa-\L	2.r	2.r	2.r	4C################'/	4E###############'/	4GG'/	4GG'/	4ff'\	4aa-'\	4bb'\	4ddd'\
.	8a-\)	.	8ff\)	.	.	.	.	.	.	.	.	.	.	.
4G'\	(8f\	4b/ 4d'/	(8aa-\	.	.	.	4C################'/	4E###############'/	4GG'/	4GG'/	4ff'\	4aa-'\	4bb'\	4ddd'\
.	8a-\)	.	8ff\)	.	.	.	.	.	.	.	.	.	.	.
4GG'/	(8f\	4b/ 4d'/	(8aa-\	.	.	.	4C################'/	4E###############'/	4G'\	4G'\	4ff'\	4aa-'\	4bb'\	4ddd'\
.	8a-\J)	.	8ff\J)	.	.	.	.	.	.	.	.	.	.	.
=25	=25	=25	=25	=25	=25	=25	=25	=25	=25	=25	=25	=25	=25	=25
4GG'/	(8f\L	(8b\L	(8aa-\L	2.r	2.r	2.r	4C################'/	4E###############'/	4G'\	4G'\	(4ff\	(4aa-\	(4bb\	(4ddd\
.	8a-\)	8dd\)	8ff\)	.	.	.	.	.	.	.	.	.	.	.
4GG'/	(8e-\	(8ee-\	(8gg\	.	.	.	4r	4r	4G'\	4G'\	4ee-\	4gg\	4ccc\	4eee-\
.	8g\)	8cc\)	8ee-\)	.	.	.	.	.	.	.	.	.	.	.
4GG'/	(8d\	(8b\	(8ff\	.	.	.	4r	4r	4GG'/	4GG'/	4dd\)	4ff\)	4ddd\)	4fff\)
.	8f\J)	8dd\J)	8dd\J)	.	.	.	.	.	.	.	.	.	.	.
=26	=26	=26	=26	=26	=26	=26	=26	=26	=26	=26	=26	=26	=26	=26
4C'/	4e-'\	4g'/	4ee-'\	2.r	2.r	2.r	2.r	2.r	4C'/	4C'/	2ee-\	4ee-'\	2ccc\	2eee-\
4C'/	4e-'\	4gg'\	4ee-'\	.	.	.	.	.	4C'/	4C'/	.	4ee-'\	.	.
4E-'\	4g'\	4ee-'\	4ccc'\	.	.	.	.	.	4E-'\	4E-'\	4cc'\	4gg'\	4ccc'\	4ccc'\
=27	=27	=27	=27	=27	=27	=27	=27	=27	=27	=27	=27	=27	=27	=27
2F\	2a-\	2cc\	4dd'\	2.r	2.r	2.r	2.r	2.r	2F\	2F\	2cc\	2aa-\	4dd'\	4dd'\
.	.	.	4dd'\	.	.	.	.	.	.	.	.	.	4dd'\	4dd'\
4G'\	4f'\	4b'\	4gg'\	.	.	.	.	.	4G'\	4G'\	4b'\	4dd'\	4gg'\	4gg'\
=28	=28	=28	=28	=28	=28	=28	=28	=28	=28	=28	=28	=28	=28	=28
4A-'\	4e-'\	4cc'\	4cc'\	2.r	2.r	2.r	2.r	2.r	4A-'\	4A-'\	4cc'\	4cc'\	4cc'\	4cc'\
4r	4r	4r	4r	.	.	.	.	.	4r	4r	4r	4r	4r	4r
4E-'\	4G'/	4c'/	4cc'\	.	.	.	.	.	4E-'\	4E-'\	4g'/	4cc'\	4cc'\	4cc'\
=29	=29	=29	=29	=29	=29	=29	=29	=29	=29	=29	=29	=29	=29	=29
2F\	2A-/	2c/	4d'/	2.r	2.r	2.r	2.r	2.r	2F\	2F\	2a-/	2cc\	4dd'\	4dd'\
.	.	.	4d'/	.	.	.	.	.	.	.	.	.	4dd'\	4dd'\
4G'\	4G'/	4B'/	4g'/	.	.	.	.	.	4G'\	4G'\	4g'/	4b'\	4gg'\	4gg'\
=30	=30	=30	=30	=30	=30	=30	=30	=30	=30	=30	=30	=30	=30	=30
2E;\	2G;/	2B-;/	2c;/	4r	4r	4r	4r	4r	2E;\	2E;\	2g;/	2b-;\	2cc;\	2cc;\
.	.	.	.	4r	4r	4r	4r	4r	.	.	.	.	.	.
4r	4r	4r	4c/	4r	4r	4r	4r	4r	4r	4r	4r	4r	4r	4r
=31	=31	=31	=31	=31	=31	=31	=31	=31	=31	=31	=31	=31	=31	=31
!! No notes for the bassoons in Pleyel & the Ef4s and F4s are missing from the chords.
!! Flutes rest until the third beat of Meas. 34 in Pleyel.
2E-\	2F/	2A/	4c/)	2.r	2.r	2.r	2.r	2.r	2.r	4r	4r	4r	4r	2.r
.	.	.	4f'/	.	.	.	.	.	.	4r	4r	4r	4r	.
4r	4r	4r	4r	.	.	.	.	.	.	4e-'\	4a'/	4ff'\	4cc'\	.
=32	=32	=32	=32	=32	=32	=32	=32	=32	=32	=32	=32	=32	=32	=32
2.r	2.r	2.r	4r	2.r	2.r	2.r	2.r	2.r	2.r	4e-'\	4a'/	4ff'\	4cc'\	2.r
.	.	.	4r	.	.	.	.	.	.	4e-'\	4a'/	4ff'\	4cc'\	.
.	.	.	4e-/	.	.	.	.	.	.	4r	4r	4r	4r	.
=33	=33	=33	=33	=33	=33	=33	=33	=33	=33	=33	=33	=33	=33	=33
!! In Pleyel the following three C6s are played by the oboe and the flutes rest.  
2AA/	2F/	2c/	4e-/)	2.r	2.r	2.r	2.r	2.r	2.r	4r	4r	4r	2.r	4r
.	.	.	4cc\	.	.	.	.	.	.	4r	4r	4r	.	4r
!! In Pleyel the following three A4s are C6s & the A4s are missing from the chords.
4r	4r	4r	4r	.	.	.	.	.	.	4f'\	4ee-'\	4a'/	.	4ccc'\
=34	=34	=34	=34	=34	=34	=34	=34	=34	=34	=34	=34	=34	=34	=34
2.r	2.r	2.r	4r	2.r	2.r	2.r	4r	4r	4r	4f'\	4ee-'\	4a'/	4r	4ccc'\
.	.	.	4r	.	.	.	4r	4r	4r	4f'\	4ee-'\	4a'/	4r	4ccc'\
*	*	*	*	*	*	*	*	*	*clefC4	*clefC4	*	*	*	*
.	.	.	4f/	.	.	.	4c################\	4e###############\	4d\	4f\	4r	4ff\	4ddd\	4fff\
=35	=35	=35	=35	=35	=35	=35	=35	=35	=35	=35	=35	=35	=35	=35
4BB-/	4B-\ 4d/	4d/ 4B-/	4f/)	4BB-/	4d/	4b-\	4c################\	4e###############\	4d\	4f\	4dd\	4ff\)	4ddd\	4fff\
4r	4r	4r	4b-\	4r	4r	4r	4a###\	4c################\	4B-\	4d\	4r	4bb-\	4bb-\	4ddd\
4r	4r	4r	4b-\	4r	4r	4r	4a###\	4c################\	4B-\	4d\	4r	4b-\	4bb-\	4ddd\
=36	=36	=36	=36	=36	=36	=36	=36	=36	=36	=36	=36	=36	=36	=36
4BB-/	4B-\ 4d/	4f/ 4d/	4b-\)	4BB-/	4d/	4b-\	4a###\	4c################\	4B-\	4d\	4dd\	4b-\)	4bb-\	4ddd\
4r	4r	4r	4dd\	4r	4r	4r	4C################/	4a###\	4F/	4B-\	4r	4dd\	4ff\	4bb-\
4r	4r	4r	4dd\	4r	4r	4r	4C################/	4a###\	4d\	4f\	4b-\	4dd\	4ff\	4bb-\
=37	=37	=37	=37	=37	=37	=37	=37	=37	=37	=37	=37	=37	=37	=37
4BB-/	2B-\ 2d/	4b-\)	4dd\)	4BB-/	4B-/	4b-\	4A###/	4a###\	4d\	4f\	4b-\	4dd\)	4ff\	4bb-\
4BB-/	.	4dd\	4ff\	8BB-/L	4B-/	4b-\	4A###/	4a###\	4B-\	4d\	4dd\	4ff\	4dd\	4ff\
.	.	.	.	8BB-/	.	.	.	.	.	.	.	.	.	.
4BB-/	8e-\L	8gg\L	8bb-\L	8BB-/	4B-/	4b-\	4A###/	4a###\	4e-\	4g\	8gg\L	8bb-\L	8gg\L	8bb-\L
.	8g\J	8ee-\J	8gg\J	8BB-/J	.	.	.	.	.	.	8ee-\J	8gg\J	8ee-\J	8gg\J
=38	=38	=38	=38	=38	=38	=38	=38	=38	=38	=38	=38	=38	=38	=38
2BB-/	2b-\	2dd\	2ff\	4BB-/	4B-/	4b-\	4A###/	4a###\	2d\	2f\	2dd\	2ff\	2dd\	2ff\
.	.	.	.	4r	4r	4r	4r	4r	.	.	.	.	.	.
4r	4e-\ 4g/	(8gg\L	(8gg\L	4r	4r	4r	4r	4r	4e-\	4g\	4ee-\	4gg\	4r	4r
.	.	8ee-\J)	8ee-\J)	.	.	.	.	.	.	.	.	.	.	.
=39	=39	=39	=39	=39	=39	=39	=39	=39	=39	=39	=39	=39	=39	=39
2.r	(4d\ (4f/	(8ff\L	(8ff\L	2.r	2.r	2.r	2.r	2.r	(4d\	(4f\	(4dd\	(4ff\	2.r	2.r
.	.	8dd\)	8dd\)	.	.	.	.	.	.	.	.	.	.	.
.	4c\ 4e-/	(8ee-\	(8ee-\	.	.	.	.	.	4c\	4e-\	4cc\	4ee-\	.	.
.	.	8cc\)	8cc\)	.	.	.	.	.	.	.	.	.	.	.
.	4B\) 4d/)	(8dd\	(8dd\	.	.	.	.	.	4B\)	4d\)	4b\)	4dd\)	.	.
.	.	8b\J)	8b\J)	.	.	.	.	.	.	.	.	.	.	.
=40	=40	=40	=40	=40	=40	=40	=40	=40	=40	=40	=40	=40	=40	=40
4r	4c'\ 4e-'/	4cc'\	4cc'\	2.r	2.r	2.r	2.r	2.r	4c'\	4e-'\	4cc'\	4ee-'\	2.r	2.r
4r	4c'\ 4e-'/	4cc'\	4cc'\	.	.	.	.	.	4c'\	4e-'\	4cc'\	4ee-'\	.	.
(8C/L	4e-\ 4g/	(8g/L	(8ee-\L	.	.	.	.	.	4e-\	4g\	4g/	4ee-\	.	.
8D/J)	.	8e-/J)	8cc\J)	.	.	.	.	.	.	.	.	.	.	.
=41	=41	=41	=41	=41	=41	=41	=41	=41	=41	=41	=41	=41	=41	=41
4E-'\	(4d\ (4f/	(8f/L	(8dd\L	2.r	2.r	2.r	2.r	2.r	(4d\	(4f\	(4f/	(4dd\	2.r	2.r
.	.	8d/)	8b-\)	.	.	.	.	.	.	.	.	.	.	.
4E-'\	4c\ 4e-/	(8e-/	(8cc\	.	.	.	.	.	4c\	4e-\	4e-/	4cc\	.	.
.	.	8c/)	8a\)	.	.	.	.	.	.	.	.	.	.	.
4E'\	4B-\) 4d/)	(8d/	(8b-\	.	.	.	.	.	4B-\)	4d\)	4d/)	4b-\)	.	.
.	.	8B-/J)	8g\J)	.	.	.	.	.	.	.	.	.	.	.
=42	=42	=42	=42	=42	=42	=42	=42	=42	=42	=42	=42	=42	=42	=42
4F'\	4F'\ 4f'/	4f'/	4f'/	2.r	2.r	2.r	4r	4r	4F'\	4f'\	4f/	4f/	4r	4r
4F'\	4F'\ 4f'/	4f'/	4f'/	.	.	.	4r	4r	4F'\	4f'\	4r	4r	4r	4r
4r	4r	4r	4fz/	.	.	.	4C################/	4E###############/	4d\	4f\	4r	4f/	4ddd\	4fff\
=43	=43	=43	=43	=43	=43	=43	=43	=43	=43	=43	=43	=43	=43	=43
4BB-/	4B-\ 4d/	4d/ 4B-/	4f/)	4BB-/	4d/	4b-\	2C################/	4E###############/	4d\	4f\	4d/	4f/)	4ddd\	4fff\
4r	4r	4r	4b-\	4r	4r	4r	.	4a###\	4B-\	4d\	4r	4b-\	4bb-\	4ddd\
4r	4r	4r	4b-\	4r	4r	4r	4a###\	4a###\	4B-\	4d\	4r	4b-\	4bb-\	4ddd\
=44	=44	=44	=44	=44	=44	=44	=44	=44	=44	=44	=44	=44	=44	=44
4BB-/	4B-\ 4d/	4f/ 4d/	4b-\)	4BB-/	4d/	4b-\	2a###\	4a###\	4B-\	4d\	4f/	4b-\)	4bb-\	4ddd\
4r	4r	4r	4dd\	4r	4r	4r	.	4c################\	4F/	4B-\	4r	4dd\	4ff\	4bb-\
4r	4r	4r	4dd\	4r	4r	4r	4a###\	4c################\	4d\	4f\	4b-\	4dd\	4dd\	4ff\
=45	=45	=45	=45	=45	=45	=45	=45	=45	=45	=45	=45	=45	=45	=45
4BB-/	2B-\ 2d/	4b-\)	4dd\)	16BB-/LL	4d/	4b-\	2a###\	4c################\	4d\	4f\	4b-\	4dd\)	4dd\	4ff\
.	.	.	.	16BB-/	.	.	.	.	.	.	.	.	.	.
.	.	.	.	16BB-/	.	.	.	.	.	.	.	.	.	.
.	.	.	.	16BB-/	.	.	.	.	.	.	.	.	.	.
4BB-/	.	4dd\	4ff\	16BB-/	4B-/	4b-\	.	8e###############\L	4B-\	4d\	4dd\	4ff\	4b-\	4dd\
.	.	.	.	16BB-/	.	.	.	.	.	.	.	.	.	.
.	.	.	.	16BB-/	.	.	.	8c################\J	.	.	.	.	.	.
.	.	.	.	16BB-/	.	.	.	.	.	.	.	.	.	.
4BB-/	8e-\L	8gg\L	8bb-\L	16BB-/	4B-/	4b-\	4A###/	4a###\	4e-\	4g\	8gg\L	8bb-\L	8gg\L	8bb-\L
.	.	.	.	16BB-/	.	.	.	.	.	.	.	.	.	.
.	8g\J	8ee-\J	8gg\J	16BB-/	.	.	.	.	.	.	8ee-\J	8gg\J	8ee-\J	8gg\J
.	.	.	.	16BB-/JJ	.	.	.	.	.	.	.	.	.	.
=46	=46	=46	=46	=46	=46	=46	=46	=46	=46	=46	=46	=46	=46	=46
2BB-/	2b-\	2dd\	2ff\	4BB-/	4B-/	4b-\	4A###/	4a###\	2d\	2f\	2dd\	2ff\	2dd\	2ff\
.	.	.	.	4r	4r	4r	4r	4r	.	.	.	.	.	.
4r	4e-\ 4g/	(8gg\L	(8gg\L	4r	4r	4r	4r	4r	4e-\	4g\	4ee-\	4gg\	4r	4r
.	.	8ee-\J)	8ee-\J)	.	.	.	.	.	.	.	.	.	.	.
=47	=47	=47	=47	=47	=47	=47	=47	=47	=47	=47	=47	=47	=47	=47
2.r	(4d\ (4f/	(8ff\L	(8ff\L	2.r	2.r	2.r	2.r	2.r	(4d\	(4f\	(4dd\	(4ff\	2.r	2.r
.	.	8dd\)	8dd\)	.	.	.	.	.	.	.	.	.	.	.
.	4c\ 4e-/	(8ee-\	(8ee-\	.	.	.	.	.	4c\	4e-\	4cc\	4ee-\	.	.
.	.	8cc\)	8cc\)	.	.	.	.	.	.	.	.	.	.	.
.	4B\) 4d/)	(8dd\	(8dd\	.	.	.	.	.	4B\)	4d\)	4b\)	4dd\)	.	.
.	.	8b\J)	8b\J)	.	.	.	.	.	.	.	.	.	.	.
=48	=48	=48	=48	=48	=48	=48	=48	=48	=48	=48	=48	=48	=48	=48
4r	4c'\ 4e-'/	4cc'\	4cc'\	2.r	2.r	2.r	2.r	2.r	4c'\	4e-'\	4cc'\	4ee-'\	4r	4r
4r	4c'\ 4e-'/	4cc'\	4cc'\	.	.	.	.	.	4c'\	4e-'\	4cc'\	4ee-'\	4r	4r
*	*	*	*	*	*	*	*	*	*clefF4	*clefF4	*	*	*	*
4F'\	4f'\	4a-'/	(8b\L	.	.	.	.	.	4F'\	4F'\	4b'\	4dd'\	4b\	4b'\
.	.	.	8dd\J)	.	.	.	.	.	.	.	.	.	.	.
=49	=49	=49	=49	=49	=49	=49	=49	=49	=49	=49	=49	=49	=49	=49
(8E-\L	(8e-\L	(8g/L	(8cc\L	2.r	2.r	2.r	2.r	2.r	(8E-\L	(8E-\L	(4cc\	(4ee-\	(8cc\L	(8cc\L
8C\)	8c\)	8e-/)	8ee-\)	.	.	.	.	.	8C\)	8C\)	.	.	8ee-\)	8ee-\)
(8E-\	(8e-\	(8g/	(8cc\	.	.	.	.	.	(8E-\	(8E-\	4gg\)	4gg\)	(8cc\	(8cc\
8C\J)	8c\J)	8e-/)	8ee-\)	.	.	.	.	.	8C\J)	8C\J)	.	.	8ee-\J)	8ee-\J)
4F'\	4f'\	(8c/	(8a\	.	.	.	.	.	4F'\	4F'\	4cc'\	4cc'\	4a/	4a/
.	.	8e-/J)	8cc\J)	.	.	.	.	.	.	.	.	.	.	.
=50	=50	=50	=50	=50	=50	=50	=50	=50	=50	=50	=50	=50	=50	=50
4BB-'/	4B-'/	4d'/	4b-'\	4r	4r	4r	4r	4r	4BB-'/	4BB-'/	4dd'\	4dd'\	4b-'\	4b-'\
4r	4r	4r	4b-'\	4r	4r	4r	4r	4r	4r	4r	4r	4r	4r	4r
4BB-'/	4B-'/	4B-'/	4B-'/	4BB-'/	4B-'/	4b-'\	4A###'/	4a###'\	4BB-'/	4BB-'/	4b-'\	4b-'\	4r	4r
=51	=51	=51	=51	=51	=51	=51	=51	=51	=51	=51	=51	=51	=51	=51
4BB-'/	4B-'/	4B-'/	4B-'/	4BB-'/	4B-'/	4b-'\	4A###'/	4a###'\	4BB-'/	4BB-'/	4b-'\	4b-'\	4r	4r
4BB-'/	4B-'/	4B-'/	4B-'/	4BB-'/	4B-'/	4b-'\	4A###'/	4a###'\	4BB-'/	4BB-'/	4b-'\	4b-'\	4r	4r
4r	4e-'\	4b-/ 4e-'/	(8gg\L	4r	4r	4r	4r	4r	4e-'\	4e-'\	4gg'\	4bb-'\	(8gg\L	(8gg\L
.	.	.	8bb-\J)	.	.	.	.	.	.	.	.	.	8bb-\J)	8bb-\J)
=52	=52	=52	=52	=52	=52	=52	=52	=52	=52	=52	=52	=52	=52	=52
4r	4d'\	4b-/ 4d'/	(8ff\L	4r	4r	4r	4r	4r	4d'\	4d'\	4ff'\	4bb-'\	(8ff\L	(8ff\L
.	.	.	8bb-\)	.	.	.	.	.	.	.	.	.	8bb-\)	8bb-\)
4r	4d'\	4b-/ 4d'/	(8ff\	4r	4r	4r	4r	4r	4d'\	4d'\	4ff'\	4bb-'\	(8ff\	(8ff\
.	.	.	8bb-\J)	.	.	.	.	.	.	.	.	.	8bb-\J)	8bb-\J)
4BB-'/	4B-'/	4B-'/	4B-'/	4BB-'/	4B-'/	4b-'\	4A###'/	4a###'\	4BB-'/	4BB-'/	4b-'\	4b-'\	4r	4r
=53	=53	=53	=53	=53	=53	=53	=53	=53	=53	=53	=53	=53	=53	=53
4BB-'/	4B-'/	4B-'/	4B-'/	4BB-'/	4B-'/	4b-'\	4A###'/	4a###'\	4BB-'/	4BB-'/	4b-'\	4b-'\	4r	4r
4BB-'/	4B-'/	4B-'/	4B-'/	4BB-'/	4B-'/	4b-'\	4A###'/	4a###'\	4BB-'/	4BB-'/	4b-'\	4b-'\	4r	4r
4r	4e-'\	4b-/ 4e-'/	(8gg\L	4r	4r	4r	4r	4r	4e-'\	4e-'\	4gg'\	4bb-'\	(8gg\L	(8gg\L
.	.	.	8bb-\J)	.	.	.	.	.	.	.	.	.	8bb-\J)	8bb-\J)
=54	=54	=54	=54	=54	=54	=54	=54	=54	=54	=54	=54	=54	=54	=54
4r	4d'\	4b-/ 4d'/	(8ff\L	2.r	4r	4r	4r	4r	4d'\	4d'\	4ff'\	4bb-'\	(8ff\L	(8ff\L
.	.	.	8bb-\)	.	.	.	.	.	.	.	.	.	8bb-\)	8bb-\)
4r	4d'\	4b-/ 4d'/	(8ff\	.	4r	4r	4r	4r	4d'\	4d'\	4ff'\	4bb-'\	(8ff\	(8ff\
.	.	.	8bb-\J)	.	.	.	.	.	.	.	.	.	8bb-\J)	8bb-\J)
4E-\	4e-\	4g/	(8ee-\L	.	4cc\	4ee-\	4b###\	4d###############\	4e-\	4e-\	4ee-\	4gg\	(8ee-\L	(8ee-\L
.	.	.	8gg\J)	.	.	.	.	.	.	.	.	.	8gg\J)	8gg\J)
=55	=55	=55	=55	=55	=55	=55	=55	=55	=55	=55	=55	=55	=55	=55
2F\	2f\	(8f/L	(8dd\L	4FF/	2b-\	2dd\	2a###\	2c################\	2f\	2f\	2dd\	2ff\	(8dd\L	(8dd\L
.	.	8d/)	8ff\)	.	.	.	.	.	.	.	.	.	8ff\)	8ff\)
.	.	(8f/	(8dd\	8FF/L	.	.	.	.	.	.	.	.	(8dd\	(8dd\
.	.	8d/)	8ff\)	8FF/	.	.	.	.	.	.	.	.	8ff\)	8ff\)
4FF/	4F/	(8e-/	(8cc\	8FF/	4f/	4cc\	4E###############/	4b###\	4F\	4F\	4a/	(8ee-\L	(8cc\	(8cc\
.	.	8c/J)	8ee-\J)	8FF/J	.	.	.	.	.	.	.	8cc\J)	8ee-\J)	8ee-\J)
=56	=56	=56	=56	=56	=56	=56	=56	=56	=56	=56	=56	=56	=56	=56
4BB-/	4B-/	4d/	4b-\	4BB-/	4d/	4b-\	4C################/	4a###\	4B-\	4B-\	4b-\	4b-\	4b-\	4b-\
4r	4r	4r	4r	4r	4r	4r	4r	4r	4r	4r	4r	4r	4r	4r
4r	4r	4r	4r	4r	4r	4r	4A###'/	4a###'\	4B-'\	4B-'\	4r	4r	4r	4r
=57	=57	=57	=57	=57	=57	=57	=57	=57	=57	=57	=57	=57	=57	=57
2.r	2.r	2.r	2.r	2.r	2.r	2.r	4A###'/	4a###'\	4B-'\	4B-'\	4r	4r	4r	4r
.	.	.	.	.	.	.	4A###'/	4a###'\	4B-'\	4B-'\	4r	4r	4r	4r
.	.	.	.	.	.	.	4r	4r	4r	4r	4b-'\	4ee-'\	(8gg\L	(8gg\L
.	.	.	.	.	.	.	.	.	.	.	.	.	8bb-\J)	8bb-\J)
=58	=58	=58	=58	=58	=58	=58	=58	=58	=58	=58	=58	=58	=58	=58
4r	4r	4r	4r	2.r	2.r	2.r	2.r	2.r	4r	4r	4b-'\	4dd'\	(8ff\L	(8ff\L
.	.	.	.	.	.	.	.	.	.	.	.	.	8bb-\)	8bb-\)
4r	4r	4r	4r	.	.	.	.	.	4r	4r	4b-'\	4dd'\	(8ff\	(8ff\
.	.	.	.	.	.	.	.	.	.	.	.	.	8bb-\J)	8bb-\J)
4BB'/	4B'/	4B'/	4B'/	.	.	.	.	.	4BB'/	4BB'/	4b'\	4b'\	4r	4r
=59	=59	=59	=59	=59	=59	=59	=59	=59	=59	=59	=59	=59	=59	=59
4BB'/	4B/	4B'/	4B'/	2.r	2.r	2.r	2.r	2.r	4BB'/	4BB'/	4b'\	4b'\	4r	4r
4BB'/	4B/	4B'/	4B'/	.	.	.	.	.	4BB'/	4BB'/	4b'\	4b'\	4r	4r
4BB/	4B/	(8f/L	(8ff\L	.	.	.	.	.	4BB/	4BB/	4ff\	4aa-\	(8ff\L	(8ff\L
.	.	8a-/J)	8aa-\J)	.	.	.	.	.	.	.	.	.	8aa-\J)	8aa-\J)
=60	=60	=60	=60	=60	=60	=60	=60	=60	=60	=60	=60	=60	=60	=60
4C/	4c\	(8e-/L	(8ee-\L	2.r	2.r	2.r	2.r	2.r	4C/	4C/	4ee-\	4gg\	(8ee-\L	(8ee-\L
.	.	8g/)	8gg\)	.	.	.	.	.	.	.	.	.	8gg\)	8gg\)
4D\	4d\	(8d/	(8dd\	.	.	.	.	.	4D\	4D\	4dd\	4ff\	(8dd\	(8dd\
.	.	8f/)	8ff\)	.	.	.	.	.	.	.	.	.	8ff\)	8ff\)
4E-\	4e-\	(8c/	(8cc\	.	.	.	.	.	4E-\	4E-\	4cc\	4ee-\	(8cc\	(8cc\
.	.	8e-/J)	8ee-\J)	.	.	.	.	.	.	.	.	.	8ee-\J)	8ee-\J)
=61	=61	=61	=61	=61	=61	=61	=61	=61	=61	=61	=61	=61	=61	=61
2.F\	2.f\	2d/	2b-\	4FF/	(2b-\	(2dd\	(2a###\	(2c################\	2.F\	2.F\	2b-\	2dd\	2b-\	2b-\
.	.	.	.	8FF/L	.	.	.	.	.	.	.	.	.	.
.	.	.	.	8FF/	.	.	.	.	.	.	.	.	.	.
.	.	4e-/	(8cc\L	8FF/	4f/)	4cc\)	4E###############/)	4b###\)	.	.	4a/	(8cc\L	(8cc\L	(8cc\L
.	.	.	8dd\J)	8FF/J	.	.	.	.	.	.	.	8dd\J)	8dd\J)	8dd\J)
=62	=62	=62	=62	=62	=62	=62	=62	=62	=62	=62	=62	=62	=62	=62
4BB-/	4B-/	4d/	4b-\	4BB-/	4d/	4b-\	4C################/	4a###\	4BB-/	4BB-/	4b-\	4b-\	4b-\	4b-\
4r	4r	4r	(8bb-\L	4r	4r	4r	4r	4r	4r	4r	4r	4r	4r	4r
.	.	.	8ff\)	.	.	.	.	.	.	.	.	.	.	.
4r	4r	4r	(8dd\	4r	4r	4r	4r	4r	4r	4r	4r	4r	4r	4r
.	.	.	8b-\J)	.	.	.	.	.	.	.	.	.	.	.
=63	=63	=63	=63	=63	=63	=63	=63	=63	=63	=63	=63	=63	=63	=63
2.F\	2.f\	2.a/ 2.e-/	2cc\	16FF/LL	2.f/	2.cc\	2.E###############/	2.b###\	2.F\	2.F\	2.cc\	2.ee-\	2.aa\	2.aa\
.	.	.	.	16FF/	.	.	.	.	.	.	.	.	.	.
.	.	.	.	16FF/	.	.	.	.	.	.	.	.	.	.
.	.	.	.	16FF/	.	.	.	.	.	.	.	.	.	.
.	.	.	.	16FF/	.	.	.	.	.	.	.	.	.	.
.	.	.	.	16FF/	.	.	.	.	.	.	.	.	.	.
.	.	.	.	16FF/	.	.	.	.	.	.	.	.	.	.
.	.	.	.	16FF/	.	.	.	.	.	.	.	.	.	.
.	.	.	(8cc\L	16FF/	.	.	.	.	.	.	.	.	.	.
.	.	.	.	16FF/	.	.	.	.	.	.	.	.	.	.
.	.	.	8dd\J)	16FF/	.	.	.	.	.	.	.	.	.	.
.	.	.	.	16FF/JJ	.	.	.	.	.	.	.	.	.	.
=64	=64	=64	=64	=64	=64	=64	=64	=64	=64	=64	=64	=64	=64	=64
4BB-/	4B-/	4b-/ 4d/	4b-\	4BB-/	4b-\	4dd\	4a###\	4c################\	4B-\	4B-\	4dd\	4dd\	4bb-\	4bb-\
4r	4r	4r	(8ddd\L	4r	4r	4r	4r	4r	4r	4r	4r	4r	4r	4r
.	.	.	8bb-\)	.	.	.	.	.	.	.	.	.	.	.
4r	4r	4r	(8ff\	4r	4r	4r	4r	4r	4r	4r	4r	4r	4r	4r
.	.	.	8dd\J)	.	.	.	.	.	.	.	.	.	.	.
=65	=65	=65	=65	=65	=65	=65	=65	=65	=65	=65	=65	=65	=65	=65
2.F\	2.f\	2.a/ 2.e-/	2cc\	16FF/LL	2.f/	2.cc\	2.E###############/	2.b###\	2.F\	2.F\	2.cc\	2.ee-\	2.aa\	2.aa\
.	.	.	.	16FF/	.	.	.	.	.	.	.	.	.	.
.	.	.	.	16FF/	.	.	.	.	.	.	.	.	.	.
.	.	.	.	16FF/	.	.	.	.	.	.	.	.	.	.
.	.	.	.	16FF/	.	.	.	.	.	.	.	.	.	.
.	.	.	.	16FF/	.	.	.	.	.	.	.	.	.	.
.	.	.	.	16FF/	.	.	.	.	.	.	.	.	.	.
.	.	.	.	16FF/	.	.	.	.	.	.	.	.	.	.
.	.	.	(8cc\L	16FF/	.	.	.	.	.	.	.	.	.	.
.	.	.	.	16FF/	.	.	.	.	.	.	.	.	.	.
.	.	.	8dd\J)	16FF/	.	.	.	.	.	.	.	.	.	.
.	.	.	.	16FF/JJ	.	.	.	.	.	.	.	.	.	.
=66	=66	=66	=66	=66	=66	=66	=66	=66	=66	=66	=66	=66	=66	=66
4BB-/	4B-/	4b-/ 4d/	4b-\	4BB-/	4d/	4b-\	4C################/	4a###\	4BB-/	4BB-/	4dd\	4dd\	4bb-\	4bb-\
4r	4r	4r	4r	4r	4r	4r	4r	4r	4r	4r	4r	4r	4r	4r
=:||:@	=:||:@	=:||:@	=:||:@	=:||:@	=:||:@	=:||:@	=:||:@	=:||:@	=:||:@	=:||:@	=:||:@	=:||:@	=:||:@	=:||:@
*M3/4	*M3/4	*M3/4	*M3/4	*M3/4	*M3/4	*M3/4	*M3/4	*M3/4	*M3/4	*M3/4	*M3/4	*M3/4	*M3/4	*M3/4
*>C	*>C	*>C	*>C	*>C	*>C	*>C	*>C	*>C	*>C	*>C	*>C	*>C	*>C	*>C
!! Trio
4r	4r	4r	4f'/	4r	4r	4r	4r	4r	4r	4F'\	4r	4f'/	4r	4r
=67	=67	=67	=67	=67	=67	=67	=67	=67	=67	=67	=67	=67	=67	=67
4BB-/	2.r	2.r	2.d/	2.r	2.r	2.r	2.r	2.r	2.r	2.B-\	2.r	2.b-\	2.r	2.r
4BB-/	.	.	.	.	.	.	.	.	.	.	.	.	.	.
4BB-/	.	.	.	.	.	.	.	.	.	.	.	.	.	.
=68	=68	=68	=68	=68	=68	=68	=68	=68	=68	=68	=68	=68	=68	=68
4BB-/	2.r	2.r	(4c/	2.r	2.r	2.r	2.r	2.r	2.r	(4A\	2.r	(4a/	2.r	2.r
4BB-/	.	.	4d/	.	.	.	.	.	.	4B-\	.	4b-\	.	.
4BB-/	.	.	4e-/)	.	.	.	.	.	.	4c\)	.	4cc\)	.	.
=69	=69	=69	=69	=69	=69	=69	=69	=69	=69	=69	=69	=69	=69	=69
4BB-/	2.r	2.r	(2ez/	2.r	2.r	2.r	2.r	2.r	2.r	(2c#z\	2.r	(2cc#z\	2.r	2.r
4r	.	.	.	.	.	.	.	.	.	.	.	.	.	.
4r	.	.	4f/)	.	.	.	.	.	.	4d\)	.	4dd\)	.	.
=70	=70	=70	=70	=70	=70	=70	=70	=70	=70	=70	=70	=70	=70	=70
(4BB-/	(4D/	4r	4d/	2.r	2.r	2.r	2.r	2.r	2.r	4B-\	2.r	4b-\	2.r	2.r
4C/	4E-/	4r	4r	.	.	.	.	.	.	4r	.	4r	.	.
4D\)	4F/)	4f'/	4B-'/	.	.	.	.	.	.	4f'\	.	4ff'\	.	.
=71	=71	=71	=71	=71	=71	=71	=71	=71	=71	=71	=71	=71	=71	=71
[2.E-\	[2.E-/	(2A-/	(2B-/	2.r	2.r	2.r	2.r	2.r	2.r	(2f#z\	2.r	(2ff#z\	2.r	2.r
.	.	4G/)	4B/)	.	.	.	.	.	.	4g\)	.	4gg\)	.	.
=72	=72	=72	=72	=72	=72	=72	=72	=72	=72	=72	=72	=72	=72	=72
(2E-\]	(2E-/]	(2.g/	[2.c/	2.r	2.r	2.r	2.r	2.r	2.r	(4e-\)	2.r	(4ee-\)	2.r	2.r
.	.	.	.	.	.	.	.	.	.	4d\	.	4dd\	.	.
4E\	4E/	.	.	.	.	.	.	.	.	4c\)	.	4cc\)	.	.
=73	=73	=73	=73	=73	=73	=73	=73	=73	=73	=73	=73	=73	=73	=73
2F\)	4F/)	4c/)	2c/]	2.r	2.r	2.r	2.r	2.r	2.r	(4B-\	2.r	(4b-\	2.r	2.r
.	4r	4r	.	.	.	.	.	.	.	4A\	.	4a/	.	.
4r	4r	4r	4r	.	.	.	.	.	.	4G\)	.	4g/)	.	.
=74	=74	=74	=74	=74	=74	=74	=74	=74	=74	=74	=74	=74	=74	=74
2.r	(4A/	(2.c/	2.e-/	2.r	2.r	2.r	2.r	2.r	2.r	(4F\	2.r	(4f/	(2.fff\	(2.fff\
.	4G/	.	.	.	.	.	.	.	.	4G\	.	4g/	.	.
.	4F/)	.	.	.	.	.	.	.	.	4A\)	.	4a/)	.	.
=75	=75	=75	=75	=75	=75	=75	=75	=75	=75	=75	=75	=75	=75	=75
4BB-/	2F/	4d/)	2.d/	2.r	2.r	2.r	2.r	2.r	2.r	2.B-\	2.r	2.b-\	4ddd\)	4ddd\)
4BB-/	.	4r	.	.	.	.	.	.	.	.	.	.	4r	4r
4BB-/	4r	4r	.	.	.	.	.	.	.	.	.	.	4r	4r
=76	=76	=76	=76	=76	=76	=76	=76	=76	=76	=76	=76	=76	=76	=76
4BB-/	2.r	2.r	(4c/	2.r	2.r	2.r	2.r	2.r	2.r	(4A\	2.r	(4a/	2.r	2.r
4BB-/	.	.	4d/	.	.	.	.	.	.	4B-\	.	4b-\	.	.
4BB-/	.	.	4e-/)	.	.	.	.	.	.	4c\)	.	4cc\)	.	.
=77	=77	=77	=77	=77	=77	=77	=77	=77	=77	=77	=77	=77	=77	=77
4BB-/	2.r	2.r	(2ez/	2.r	2.r	2.r	2.r	2.r	2.r	(2c#z\	2.r	(2cc#z\	2.r	2.r
4r	.	.	.	.	.	.	.	.	.	.	.	.	.	.
4r	.	.	4f/)	.	.	.	.	.	.	4d\)	.	4dd\)	.	.
=78	=78	=78	=78	=78	=78	=78	=78	=78	=78	=78	=78	=78	=78	=78
2.A-\	2.r	(4f/	(4d/	2.r	2.r	2.r	2.r	2.r	2.r	(4B-\	2.r	(4b-\	2.r	2.r
.	.	4e-/	4e-/	.	.	.	.	.	.	4c\	.	4cc\	.	.
.	.	4d/)	4f/)	.	.	.	.	.	.	4d\)	.	4dd\)	.	.
=79	=79	=79	=79	=79	=79	=79	=79	=79	=79	=79	=79	=79	=79	=79
(4G\	2.r	4b-\	[2.B-/	2.r	2.r	2.r	2.r	2.r	2.r	(4e-\	2.r	(4ee-\	2.r	2.r
4G-\	.	4r	.	.	.	.	.	.	.	4e\	.	4ee\	.	.
4F\)	.	4r	.	.	.	.	.	.	.	4f\)	.	4ff\)	.	.
=80	=80	=80	=80	=80	=80	=80	=80	=80	=80	=80	=80	=80	=80	=80
2.E\	2.r	2.d-/	2.B-/]	2.r	2.r	2.r	2.r	2.r	2.r	2.gz\	2.r	2.ggz\	2.r	2.r
=81	=81	=81	=81	=81	=81	=81	=81	=81	=81	=81	=81	=81	=81	=81
2.F\	(4A/	2.c/	2.e-/	2.r	2.r	2.r	2.r	2.r	2.r	(4F\	2.r	(4f/	(2.fff\	(2.fff\
.	4G/	.	.	.	.	.	.	.	.	4G\	.	4g/	.	.
.	4F/)	.	.	.	.	.	.	.	.	4A\)	.	4a/)	.	.
=82	=82	=82	=82	=82	=82	=82	=82	=82	=82	=82	=82	=82	=82	=82
4BB-/	4F/	4B-/	4d/	4r	4r	4r	4r	2r	2r	4B-\	2r	4b-\	4ddd\)	4ddd\)
4r	4r	4r	4r	4r	4r	4r	4r	.	.	4r	.	4r	4r	4r
=:||:@	=:||:@	=:||:@	=:||:@	=:||:@	=:||:@	=:||:@	=:||:@	=:||:@	=:||:@	=:||:@	=:||:@	=:||:@	=:||:@	=:||:@
*>D	*>D	*>D	*>D	*>D	*>D	*>D	*>D	*>D	*>D	*>D	*>D	*>D	*>D	*>D
4r	4r	4r	4r	4r	4r	4r	4r	4r	4r	4r	4b-'\	4cc'\	4r	4r
=83	=83	=83	=83	=83	=83	=83	=83	=83	=83	=83	=83	=83	=83	=83
!! Bf5 in Pleyel
2.r	2.r	2.r	2.r	2.r	2.r	2.r	2.r	2.r	2.r	2.r	(4b-\	(4cc\	(2.ccc\	(2.ccc\
.	.	.	.	.	.	.	.	.	.	.	4a/	4dd\	.	.
.	.	.	.	.	.	.	.	.	.	.	4g/)	4ee\)	.	.
=84	=84	=84	=84	=84	=84	=84	=84	=84	=84	=84	=84	=84	=84	=84
2.r	4r	4r	4r	2.r	2.r	2.r	2.r	2.r	2.r	4r	[2.f/	[2.ff\	4aa\)	4aa\)
.	4r	4r	4r	.	.	.	.	.	.	4r	.	.	4r	4r
.	4e-'\	4a'/	4cc'\	.	.	.	.	.	.	4e-'\	.	.	4r	4r
=85	=85	=85	=85	=85	=85	=85	=85	=85	=85	=85	=85	=85	=85	=85
!! The following G4 and E4 do not appear in Pleyel.
2.r	(4e-\	(4a/	(4cc\	2.r	2.r	2.r	(2.E###############/	(2.E###############/	2.r	(4e-\	2.f/]	2.ff_\	2.r	2.r
.	4d\	4b-\	4dd\	.	.	.	.	.	.	4d\	.	.	.	.
.	4c\)	4cc\)	4ee-\)	.	.	.	.	.	.	4c\)	.	.	.	.
=86	=86	=86	=86	=86	=86	=86	=86	=86	=86	=86	=86	=86	=86	=86
4r	2B-/	2dd\	2dd\	2.r	2.r	2.r	4C################/)	4C################/)	2.r	2B-\	[2.b-\	2ff\]	2.r	2.r
4r	.	.	.	.	.	.	4r	4r	.	.	.	.	.	.
4A-'\	4f'\	4b-'\	4dd'\	.	.	.	4r	4r	.	4r	.	4ff\	.	.
=87	=87	=87	=87	=87	=87	=87	=87	=87	=87	=87	=87	=87	=87	=87
(4A-\	(4f\	(2.b-\	(4dd\	2.r	2.r	2.r	2.r	2.r	2.r	2.r	2.b-_\	(4ff\	(2.bb-\	(2.bb-\
4G\	4e-\	.	4ee-\	.	.	.	.	.	.	.	.	4gg\	.	.
4F\)	4d\)	.	4ff\)	.	.	.	.	.	.	.	.	4aa-\)	.	.
=88	=88	=88	=88	=88	=88	=88	=88	=88	=88	=88	=88	=88	=88	=88
[2.E-\	(2B-/	(2b-\)	(2gg\	2.r	2.r	2.r	2.r	2.r	2.r	2.r	4b-\]	(2bb-\	4gg\)	4gg\)
.	.	.	.	.	.	.	.	.	.	.	4r	.	4r	4r
.	4B/)	4g/)	4ee-\)	.	.	.	.	.	.	.	4r	4gg\)	4r	4r
=89	=89	=89	=89	=89	=89	=89	=89	=89	=89	=89	=89	=89	=89	=89
(4E-\]	(4c\	(4g/	(4cc\	2.r	2.r	2.r	2.r	2.r	2.r	2.r	2.r	(4ee-\	2.r	2.r
4D\	4a-\	4f/	4b\	.	.	.	.	.	.	.	.	4b\	.	.
4E-\)	4g\)	4e-/)	4cc\)	.	.	.	.	.	.	.	.	4cc\)	.	.
=90	=90	=90	=90	=90	=90	=90	=90	=90	=90	=90	=90	=90	=90	=90
2F\	4f\	(4d/	(4b-/	2.r	2.r	2.r	2.r	2.r	2.r	4r	2.r	(4b-\	2.r	2.r
.	4r	4c/)	4a/)	.	.	.	.	.	.	4r	.	4a/)	.	.
4r	4r	4r	4f'/	.	.	.	.	.	.	4F'\	.	4f'/	.	.
=91	=91	=91	=91	=91	=91	=91	=91	=91	=91	=91	=91	=91	=91	=91
4BB-/	2.r	2.r	2.d/	2.r	2.r	2.r	2.r	2.r	2.r	2.B-\	2.r	2.b-\	2.r	2.r
4BB-/	.	.	.	.	.	.	.	.	.	.	.	.	.	.
4BB-/	.	.	.	.	.	.	.	.	.	.	.	.	.	.
=92	=92	=92	=92	=92	=92	=92	=92	=92	=92	=92	=92	=92	=92	=92
4BB-/	2.r	2.r	(4c/	2.r	2.r	2.r	2.r	2.r	2.r	(4A\	2.r	(4a/	2.r	2.r
4BB-/	.	.	4d/	.	.	.	.	.	.	4B-\	.	4b-\	.	.
4BB-/	.	.	4e-/)	.	.	.	.	.	.	4c\)	.	4cc\)	.	.
=93	=93	=93	=93	=93	=93	=93	=93	=93	=93	=93	=93	=93	=93	=93
4BB-/	2.r	2.r	(2ez/	2.r	2.r	2.r	2.r	2.r	2.r	(2c#z\	2.r	(2cc#z\	2.r	2.r
4r	.	.	.	.	.	.	.	.	.	.	.	.	.	.
4r	.	.	4f/)	.	.	.	.	.	.	4d\)	.	4dd\)	.	.
=94	=94	=94	=94	=94	=94	=94	=94	=94	=94	=94	=94	=94	=94	=94
(4BB-/	(4D/	4r	4d/	2.r	2.r	2.r	2.r	2.r	2.r	4B-\	2.r	4b-\	2.r	2.r
4C/	4E-/	4r	4r	.	.	.	.	.	.	4r	.	4r	.	.
4D/)	4F/)	4f'/	4B-'/	.	.	.	.	.	.	4f'\	.	4ff\	.	.
=95	=95	=95	=95	=95	=95	=95	=95	=95	=95	=95	=95	=95	=95	=95
[2.E-\	[2.E-/	(2A-/	(2B-/	2.r	2.r	2.r	2.r	2.r	2.r	(2f#z\	2.r	(2ff#z\	2.r	2.r
.	.	4G/)	4B/)	.	.	.	.	.	.	4g\)	.	4gg\)	.	.
=96	=96	=96	=96	=96	=96	=96	=96	=96	=96	=96	=96	=96	=96	=96
2E-\]	(2E-/]	(2.g/	[2.c/	2.r	2.r	2.r	2.r	2.r	2.r	(4e-\)	2.r	(4ee-\)	2.r	2.r
.	.	.	.	.	.	.	.	.	.	4d\	.	4dd\	.	.
4E\	4E/	.	.	.	.	.	.	.	.	4c\)	.	4cc\)	.	.
=97	=97	=97	=97	=97	=97	=97	=97	=97	=97	=97	=97	=97	=97	=97
2F\	4F/)	4c/)	2c/]	2.r	2.r	2.r	2.r	2.r	2.r	(4B-\	2.r	(4b-\	2.r	2.r
.	4r	4r	.	.	.	.	.	.	.	4A\	.	4a/	.	.
4r	4r	4r	4r	.	.	.	.	.	.	4G\)	.	4g/)	.	.
=98	=98	=98	=98	=98	=98	=98	=98	=98	=98	=98	=98	=98	=98	=98
2.r	(4A/	2.c/	2.e-/	2.r	2.r	2.r	(2.E###############/	(2.e###############\	2.r	(4F\	(2.ff\	(4f/	(2.fff\	(2.fff\
.	4G/	.	.	.	.	.	.	.	.	4G\	.	4g/	.	.
.	4F/)	.	.	.	.	.	.	.	.	4A\)	.	4a/	.	.
=99	=99	=99	=99	=99	=99	=99	=99	=99	=99	=99	=99	=99	=99	=99
4B-\	2F/	(4B-/	(4d/	2.r	2.r	2.r	4C################/)	4c################\)	2.r	2.B-\	4dd\)	2.b-\)	4ddd\)	4ddd\)
4B-\	.	4c/	4e-/	.	.	.	4r	4r	.	.	4r	.	4r	4r
4B-\	4r	4d/)	4f/)	.	.	.	4r	4r	.	.	4r	.	4r	4r
=100	=100	=100	=100	=100	=100	=100	=100	=100	=100	=100	=100	=100	=100	=100
4B-\	2.r	2.e-/	2.g-/	2.r	2.r	2.r	2.r	2.r	2.r	(4A\	2.r	(4a/	2.r	2.r
4B-\	.	.	.	.	.	.	.	.	.	4B-\	.	4b-\	.	.
4B-\	.	.	.	.	.	.	.	.	.	4c\)	.	4cc\)	.	.
=101	=101	=101	=101	=101	=101	=101	=101	=101	=101	=101	=101	=101	=101	=101
2.B-\	2.B-/	2.e/	2.g/	2.r	2.r	2.r	2.r	2.r	2.r	(2.d-\	2.r	(2.dd-\	2.r	2.r
=102	=102	=102	=102	=102	=102	=102	=102	=102	=102	=102	=102	=102	=102	=102
(4c-\	(4c-/	2.f/	(4a-/	2.r	2.r	2.r	2.r	2.r	2.r	2.d\)	2.r	2.dd\)	2.r	2.r
4B-\	4B-/	.	4b-\	.	.	.	.	.	.	.	.	.	.	.
4A-\)	4A-/)	.	4cc-\)	.	.	.	.	.	.	.	.	.	.	.
=103	=103	=103	=103	=103	=103	=103	=103	=103	=103	=103	=103	=103	=103	=103
(4G\	(4G/	2.B-/	[2.b-\	2.r	2.r	2.r	2.r	2.r	2.r	(4e-\	2.r	(4ee-\	2.r	2.r
4G-\	4G-/	.	.	.	.	.	.	.	.	4e\	.	4ee\	.	.
4F\)	4F/)	.	.	.	.	.	.	.	.	4f\)	.	4ff\)	.	.
=104	=104	=104	=104	=104	=104	=104	=104	=104	=104	=104	=104	=104	=104	=104
2.E\	4E/	2.d-/	2.b-\]	2.r	2.r	2.r	2.r	2.r	2.r	2.gz\	2.r	2.ggz\	2.r	2.r
.	4r	.	.	.	.	.	.	.	.	.	.	.	.	.
.	4r	.	.	.	.	.	.	.	.	.	.	.	.	.
=105	=105	=105	=105	=105	=105	=105	=105	=105	=105	=105	=105	=105	=105	=105
2.F\	(4A/	2.c/	2.e-/	2.r	2.r	2.r	(2.E###############/	(2.e###############\	2.r	(4F\	(2.ff\	(4f/	(2.fff\	(2.fff\
.	4G/	.	.	.	.	.	.	.	.	4G\	.	4g/	.	.
.	4F/)	.	.	.	.	.	.	.	.	4A\)	.	4a/)	.	.
=106	=106	=106	=106	=106	=106	=106	=106	=106	=106	=106	=106	=106	=106	=106
4BB-/	4F/	4B-/	4d/	4r	4r	4r	4C################/)	4c################\)	4r	4B-\	4dd\)	4b-\	4ddd\)	4ddd\)
4r	4r	4r	4r	4r	4r	4r	4r	4r	4r	4r	4r	4r	4r	4r
=:|!@	=:|!@	=:|!@	=:|!@	=:|!@	=:|!@	=:|!@	=:|!@	=:|!@	=:|!@	=:|!@	=:|!@	=:|!@	=:|!@	=:|!@
!! Men. D.C.
*-	*-	*-	*-	*-	*-	*-	*-	*-	*-	*-	*-	*-	*-	*-
!!!CDT: 1732/3/31/-1809/5/31/
!!!OCO: Johann Peter Salomon
!!!OCY: Oesterreich
!!!ODT: 1794///
!!!MPD: 1795/2/2/
!!!OPC: London
!!!PPR: Ernst Eulenburg, Ltd.
!!!PPP: London
!!!PDT: 1880///
!!!AGN: symphony
!!!AST: classical, orchestral
!!!AMT: simple triple
!!!YOR: Ernst Praetorius, editor
!!!AIN: cbass cello cor fagot flt oboe timpa tromp viola violn
!!!EEV: 1.0
!!!RDT: 1996 May 20
!!!YER: 1996 August 10
!!!YEN: United States of America
!!!EFL: 3/4
!!!ENC: Frances Bennion
!!!EED: W.B. Hewlett
!!!VTS: 3967431185
